X:1
T: Caper Fey
C:
R:Strathspey
Q: 128
K:C
M:4/4
L:1/16
|:G2|c4 e3d c4 G2c2|c4 G3F E2C2 C2E2|dd3 f3e d4 A2B^c|d4 A3G F2D2 D2E2|
c4 e3d c4 G2c2|c4 G3F E2C2 C3E|D2E2 F2G2 A2B2 ^c2A2|d4 A3G F2D2 D2gf|
e3c g3c a3c g3c|e3c g3c e3d c2e2|f3d a3d b2d2 a2f2|d3e f3g agfe d2gf|
e3c g3c a3c g3c|G3A c3d e2c2 c2fg|a3f g3e f3d e3^c|d4 A3G F2D2 D2:|
